azure-docs/api_translatorspeech.svg

<?xml version="1.0" encoding="UTF-8"?>
<svg width="512px" height="512px" viewBox="0 0 512 512" version="1.1" xmlns="http://www.w3.org/2000/svg" xmlns:xlink="http://www.w3.org/1999/xlink">
    <!-- Generator: Sketch 46.2 (44496) - http://www.bohemiancoding.com/sketch -->
    <title>translatorSpeech-wht-bluBG-512p</title>
    <desc>Created with Sketch.</desc>
    <defs></defs>
    <g id="PRODUCTION-ICONS" stroke="none" stroke-width="1" fill="none" fill-rule="evenodd">
        <g id="translatorSpeech-wht-bluBG-512p">
            <g id="Translator-Text-API">
                <rect id="Rectangle-3-Copy-11" fill="#0063B1" x="0" y="0" width="512" height="512"></rect>
                <path d="M175.619413,274.572516 C162.768213,274.572516 150.167324,279.760782 137.720036,290.307982 L130.933191,296.05376 L130.933191,271.517582 L132.509013,270.277404 C137.611947,266.261049 144.381724,262.898916 152.824036,260.139804 C161.237902,257.386382 169.208036,255.998293 176.728747,255.998293 C190.84288,255.998293 202.027236,260.46976 209.963236,269.435449 C217.813902,278.298738 221.66528,290.939449 221.66528,307.181227 L221.66528,393.146027 L202.072747,393.146027 L202.072747,377.330916 C198.756124,381.375716 194.870613,384.88576 190.421902,387.843982 C182.053547,393.419093 172.735147,396.218027 162.552036,396.218027 C149.541547,396.218027 139.017102,392.497493 131.211947,384.98816 C123.401102,377.484516 119.464391,367.927182 119.464391,356.583538 C119.464391,332.343182 135.711858,317.574827 166.750436,312.688071 L202.010169,307.448604 C201.213724,284.937671 192.566613,274.572516 175.619413,274.572516 L175.619413,274.572516 Z M172.018347,330.431716 C159.434524,332.229404 150.770347,335.073849 146.116836,338.743182 C141.878613,342.093938 139.677013,347.748693 139.677013,356.088604 C139.677013,362.448782 141.725013,367.523271 145.883591,371.562382 C150.025102,375.590116 155.918791,377.643804 163.780836,377.643804 C174.783147,377.643804 183.77728,373.655893 191.04768,365.560604 C198.386347,357.385671 202.072747,346.798649 202.072747,333.606116 L202.072747,326.085404 L172.018347,330.431716 Z" id="Fill-1" fill="#FFFFFF"></path>
                <path d="M333.427925,351.51204 C331.627886,349.497697 330.058801,347.477775 328.708073,345.457853 L359.977791,317.438405 L280.791499,313.178154 C277.418177,313.178154 274.488565,315.643073 274.488565,319.004961 L270.222222,397.696839 L299.687703,371.468538 C326.013614,394.332162 365.821617,394.782738 392.592639,370.79337 C393.722212,369.671811 395.070141,368.553042 396.196915,367.434273 C374.595054,374.82903 349.62827,369.44722 333.427925,351.51204 Z" id="Shape" fill="#FFFFFF" fill-rule="nonzero" transform="translate(333.209568, 355.437497) scale(-1, 1) translate(-333.209568, -355.437497) "></path>
                <path d="M181.379158,167.249893 C179.57912,165.23555 178.010035,163.215628 176.659306,161.195706 L207.929024,133.176258 L128.742732,128.916008 C125.36941,128.916008 122.439799,131.380927 122.439799,134.742814 L118.173456,213.434692 L147.638936,187.206391 C173.964848,210.070015 213.77285,210.520591 240.543872,186.531223 C241.673445,185.409664 243.021375,184.290895 244.148148,183.172126 C222.546288,190.566883 197.579504,185.185074 181.379158,167.249893 Z" id="Shape-Copy" fill="#FFFFFF" fill-rule="nonzero" transform="translate(181.160802, 171.175350) scale(-1, 1) rotate(-180.000000) translate(-181.160802, -171.175350) "></path>
                <path d="M393.549938,133.172338 L397.668693,132.910649 L398.669938,149.23776 L394.579627,149.510827 C376.056604,150.739627 352.78336,151.575893 323.679004,152.099271 C323.24096,156.906382 322.899627,162.015004 322.62656,167.624249 C329.48736,166.253227 336.848782,165.587627 344.835982,165.587627 C347.043271,165.587627 349.193671,165.661582 351.332693,165.803804 L353.943893,155.569493 L370.288071,159.147804 L369.252693,163.272249 C368.780516,165.149582 368.376604,166.731093 367.779271,169.018027 C373.280427,170.821404 378.389049,173.415538 383.04256,176.749227 C395.666204,185.498738 402.083271,197.547804 402.083271,212.72576 C402.083271,228.159716 396.747093,240.709404 386.182827,249.788871 C376.466204,258.043449 362.545493,263.402382 344.722204,265.791716 L341.576249,266.212693 L335.142116,250.687716 L340.489671,249.99936 C355.195449,248.110649 366.243271,243.923627 373.684338,237.563449 C381.290382,231.021227 385.033671,222.880427 385.033671,212.72576 C385.033671,202.753138 380.795449,195.095893 372.131271,189.384249 C369.292516,187.53536 366.379804,186.079004 363.262293,184.952604 C358.369849,199.510471 352.47616,212.230827 345.484516,223.22176 C330.482916,246.699804 311.97696,258.709049 290.21696,258.709049 C281.25696,258.709049 274.094649,255.858916 269.105493,250.283804 C264.082204,244.896427 261.687182,237.358649 261.687182,227.949227 C261.687182,211.331982 269.509404,196.950471 284.988871,184.855893 C291.235271,179.872427 298.044871,175.867449 305.406293,172.835271 C305.588338,165.644516 305.969493,158.817849 306.566827,152.332516 C302.738204,152.343893 298.403271,152.366649 290.512782,152.41216 C280.13056,152.474738 274.811449,152.491804 268.468338,152.491804 L264.343893,152.491804 L264.343893,135.971271 L268.468338,135.971271 C275.004871,135.971271 280.494649,135.948516 291.002027,135.897316 C299.779982,135.846116 304.188871,135.82336 308.313316,135.811982 C309.041493,130.208427 309.991538,124.474027 311.231716,117.983004 L312.033849,113.778916 L328.810382,117.635982 L327.945671,121.618204 C326.955804,126.180693 326.165049,130.80576 325.556338,135.561671 C353.318116,135.061049 376.056604,134.258916 393.549938,133.172338 M344.835982,181.943182 C336.609849,181.943182 329.066382,182.82496 322.228338,184.582827 L322.228338,184.935538 C322.228338,199.243093 323.058916,212.06016 324.708693,223.307093 C326.847716,220.650382 328.963982,217.703538 331.057493,214.489316 C337.161671,204.875093 342.281671,194.106027 346.519893,181.948871 C346.013582,181.943182 345.456071,181.943182 344.835982,181.943182 M296.087893,197.604693 C284.419982,206.780871 278.736782,216.890027 278.736782,227.949227 C278.736782,238.126649 282.269582,242.353493 290.21696,242.353493 C296.867271,242.353493 303.295716,240.533049 309.655893,236.875093 C307.004871,223.625671 305.531449,208.436338 305.241316,191.381049 C301.970204,193.201493 298.926649,195.26656 296.087893,197.604693" id="Fill-1" fill="#FFFFFF"></path>
            </g>
        </g>
    </g>
</svg>

<svg width="512" height="512" xmlns="http://www.w3.org/2000/svg"><g fill="none" fill-rule="evenodd"><path fill="#0063B1" d="M0 0h512v512H0z"/><path d="M175.62 274.573c-12.852 0-25.453 5.188-37.9 15.735l-6.787 5.746v-24.536l1.576-1.24c5.103-4.017 11.873-7.38 20.315-10.138 8.414-2.754 16.384-4.142 23.905-4.142 14.114 0 25.298 4.472 33.234 13.437 7.85 8.864 11.702 21.504 11.702 37.746v85.965h-19.592v-15.815c-3.317 4.045-7.202 7.555-11.651 10.513-8.368 5.575-17.687 8.374-27.87 8.374-13.01 0-23.535-3.72-31.34-11.23-7.81-7.503-11.748-17.06-11.748-28.404 0-24.24 16.248-39.01 47.286-43.896l35.26-5.24c-.796-22.51-9.443-32.875-26.39-32.875zm-3.602 55.859c-12.583 1.797-21.248 4.642-25.901 8.311-4.238 3.35-6.44 9.006-6.44 17.346 0 6.36 2.048 11.434 6.207 15.473 4.141 4.028 10.035 6.082 17.897 6.082 11.002 0 19.996-3.988 27.267-12.083 7.338-8.175 11.025-18.762 11.025-31.955v-7.52l-30.055 4.346z" fill="#FFF"/><path d="M332.991 351.512a54.932 54.932 0 0 0 4.72-6.054l-31.27-28.02 79.187-4.26c3.373 0 6.303 2.465 6.303 5.827l4.266 78.692-29.466-26.228c-26.325 22.863-66.133 23.314-92.905-.676-1.13-1.121-2.477-2.24-3.604-3.359 21.602 7.395 46.569 2.013 62.77-15.922zM181.38 175.1a54.932 54.932 0 0 0-4.72 6.055l31.269 28.02-79.186 4.26c-3.374 0-6.303-2.465-6.303-5.827l-4.267-78.692 29.466 26.228c26.326-22.863 66.134-23.314 92.905.675 1.13 1.122 2.477 2.24 3.604 3.36-21.602-7.395-46.568-2.013-62.769 15.922z" fill="#FFF" fill-rule="nonzero"/><path d="M393.55 133.172l4.119-.261 1 16.327-4.09.273c-18.522 1.229-41.796 2.065-70.9 2.588-.438 4.807-.78 9.916-1.052 15.525 6.86-1.37 14.222-2.036 22.209-2.036 2.207 0 4.358.074 6.497.216l2.61-10.235 16.345 3.579-1.035 4.124a600.03 600.03 0 0 1-1.474 5.746 56.145 56.145 0 0 1 15.264 7.731c12.623 8.75 19.04 20.799 19.04 35.977 0 15.434-5.336 27.983-15.9 37.063-9.717 8.254-23.638 13.613-41.46 16.003l-3.147.42-6.434-15.524 5.348-.689c14.705-1.888 25.753-6.075 33.194-12.436 7.606-6.542 11.35-14.683 11.35-24.837 0-9.973-4.239-17.63-12.903-23.342a42.647 42.647 0 0 0-8.869-4.431c-4.892 14.557-10.786 27.278-17.777 38.269-15.002 23.478-33.508 35.487-55.268 35.487-8.96 0-16.122-2.85-21.112-8.425-5.023-5.388-7.418-12.925-7.418-22.335 0-16.617 7.822-30.999 23.302-43.093a83.69 83.69 0 0 1 20.417-12.02c.182-7.191.563-14.018 1.16-20.503-3.828.01-8.163.034-16.053.08-10.382.062-15.702.079-22.045.079h-4.124v-16.52h4.124c6.537 0 12.027-.023 22.534-.075 8.778-.05 13.187-.074 17.311-.085.728-5.604 1.679-11.338 2.919-17.829l.802-4.204 16.776 3.857-.864 3.982c-.99 4.563-1.781 9.188-2.39 13.944 27.762-.501 50.5-1.303 67.994-2.39m-48.714 48.771c-8.226 0-15.77.882-22.608 2.64v.353c0 14.307.83 27.124 2.48 38.371 2.14-2.657 4.256-5.603 6.35-8.818 6.104-9.614 11.224-20.383 15.462-32.54-.506-.006-1.064-.006-1.684-.006m-48.748 15.662c-11.668 9.176-17.351 19.285-17.351 30.344 0 10.178 3.533 14.404 11.48 14.404 6.65 0 13.079-1.82 19.439-5.478-2.651-13.25-4.125-28.439-4.415-45.494a60.97 60.97 0 0 0-9.153 6.224" fill="#FFF"/></g></svg>
